X:2300
T:Ny Kirree fo Niaghtey 
C:Traditional
O:Isle of Man
S:Mona Melodies No 9 
Z:Clague collection
B:Kiaull Vannin #300 
M:3/4 
L:1/8 
Q:120 
K:D 
Bc|d2 f2 ed|c>d ec BA|d2 e2 (g!3!fg)|{b}a4 Bc|de f2 ed|c>d ed c>d|{c}B>A FE F^A| B4 B/d/c/e/|
d2 B3 F/E/|F2 A2 Ac|{c}BA FE F^e|f2 z a2|a^g fg ae|fd cB Ac|BA FE F^A|B4||



